X: 1
T: I'd Rather Be Married Than Left
M: 12/8
L: 1/8
R: slide
K: Dmaj
|:F|ABA AFA d2A A2G|ABA AFA B2E E2F|
ABA AFA d2e f2e|dcB ABc d2D D2 :|
|:g|fed fed e2A A2g|fed fef g2e e2g|
fed fed fef a2g|fed ABc d2D D2 :|
